sources/design/Outline/u_drop_sign.svg

<svg:svg xmlns:cc="http://creativecommons.org/ns#" xmlns:dc="http://purl.org/dc/elements/1.1/" xmlns:inkscape="http://www.inkscape.org/namespaces/inkscape" xmlns:rdf="http://www.w3.org/1999/02/22-rdf-syntax-ns#" xmlns:sodipodi="http://sodipodi.sourceforge.net/DTD/sodipodi-0.dtd" xmlns:svg="http://www.w3.org/2000/svg" xml:space="preserve" width="1000" height="1000" version="1.1" style="clip-rule:evenodd;fill-rule:evenodd;image-rendering:optimizeQuality;shape-rendering:geometricPrecision;text-rendering:geometricPrecision" viewBox="0 0 1000 1000" id="svg10" sodipodi:docname="u_drop_sign.svg" inkscape:version="1.1.1 (3bf5ae0d25, 2021-09-20)"><svg:text text-anchor="middle" x="144.78699" y="804.77313" id="bottom" inkscape:label="bottom" style="clip-rule:evenodd;fill-rule:evenodd;image-rendering:optimizeQuality;shape-rendering:geometricPrecision;text-rendering:geometricPrecision">✛</svg:text><svg:metadata id="metadata14"><rdf:RDF><cc:Work rdf:about=""><dc:format>image/svg+xml</dc:format><dc:type rdf:resource="http://purl.org/dc/dcmitype/StillImage" /></cc:Work></rdf:RDF></svg:metadata><sodipodi:namedview pagecolor="#ffffff" bordercolor="#666666" borderopacity="1" objecttolerance="10" gridtolerance="10" guidetolerance="10" inkscape:pageopacity="0" inkscape:pageshadow="2" inkscape:window-width="1920" inkscape:window-height="1009" id="namedview12" showgrid="false" inkscape:zoom="2.4010768" inkscape:cx="106.41059" inkscape:cy="876.68999" inkscape:window-x="0" inkscape:window-y="0" inkscape:window-maximized="1" inkscape:current-layer="svg10" showguides="true" inkscape:guide-bbox="true" inkscape:document-rotation="0" inkscape:pagecheckerboard="0"><sodipodi:guide position="0,1000" orientation="0,1" id="guide16" inkscape:label="" inkscape:locked="true" inkscape:color="rgb(0,0,255)" /><sodipodi:guide position="1763.3122,2036.1693" orientation="1000,0" id="guide18" /><sodipodi:guide position="0,200" orientation="0,1" id="guide20" inkscape:label="base" inkscape:locked="true" inkscape:color="rgb(0,0,255)" /><inkscape:grid type="xygrid" id="grid24" originx="-473.37552" originy="-489.69235" /><sodipodi:guide position="0,0" orientation="0,1" id="guide34" inkscape:label="bottom" inkscape:locked="true" inkscape:color="rgb(0,0,255)" /><sodipodi:guide position="225.05109,1693.3186" orientation="0,1" id="guide44" inkscape:label="" inkscape:locked="false" inkscape:color="rgb(0,0,255)" /><sodipodi:guide position="0,900" orientation="0,1" id="guide46" inkscape:label="" inkscape:locked="true" inkscape:color="rgb(0,0,255)" /><sodipodi:guide position="222.53938,284.82433" orientation="1,0" id="guide841" inkscape:label="width" />    </sodipodi:namedview>
 <svg:defs id="defs4"><inkscape:path-effect effect="spiro" id="path-effect852" is_visible="true" lpeversion="1" /><inkscape:path-effect effect="spiro" id="path-effect897" is_visible="true" lpeversion="1" /><inkscape:path-effect effect="spiro" id="path-effect887" is_visible="true" lpeversion="1" />
  <svg:style type="text/css" id="style2">
   
    .fil0 {fill:#EF7F1A;fill-rule:nonzero}
   
  </svg:style>
 <inkscape:path-effect effect="spiro" id="path-effect1214" is_visible="true" lpeversion="1" /><inkscape:path-effect effect="spiro" id="path-effect1195" is_visible="true" lpeversion="1" /><inkscape:path-effect effect="spiro" id="path-effect992" is_visible="true" lpeversion="1" /><inkscape:path-effect effect="spiro" id="path-effect1011" is_visible="true" lpeversion="1" /><inkscape:path-effect effect="spiro" id="path-effect261" is_visible="true" lpeversion="1" /><inkscape:path-effect effect="spiro" id="path-effect858" is_visible="true" lpeversion="1" /><inkscape:path-effect effect="spiro" id="path-effect854" is_visible="true" lpeversion="1" /><svg:style type="text/css" id="style2-9">
   
    .fil0 {fill:#EF7F1A;fill-rule:nonzero}
   
  </svg:style><inkscape:path-effect effect="spiro" id="path-effect287" is_visible="true" lpeversion="1" /><inkscape:path-effect effect="spiro" id="path-effect1032" is_visible="true" lpeversion="1" /><inkscape:path-effect effect="spiro" id="path-effect1218" is_visible="true" lpeversion="1" /><inkscape:path-effect effect="spiro" id="path-effect309" is_visible="true" lpeversion="1" /></svg:defs>
 
<svg:g id="path850"><svg:path style="color:#000000;clip-rule:nonzero;fill:#1a5fb4;fill-rule:nonzero;stroke-linecap:round;stroke-linejoin:round;-inkscape-stroke:none;paint-order:fill stroke markers;shape-rendering:auto" d="M 147.03711,734.69141 A 30.003,30.003 0.0 0,0 146.01758,734.73051 C 98.70423400000001,737.34299 53.485724000000005,757.8297 20.324219000000014,791.67777 C -15.167007999999988,827.90381 -35.28703199999999,878.15961 -32.347655999999986,929.54691 C -29.529898999999986,978.80805 -5.746449499999986,1024.83564 31.421875000000014,1056.46484 C 68.48815700000002,1088.00734 116.76679000000001,1103.73034 164.84570000000002,1101.60554 C 213.65018000000003,1099.44854 261.0829,1078.92404 295.24023,1043.11524 C 329.51116,1007.18744 348.28643,957.7142500000001 344.64453,907.5703500000001 C 340.85589999999996,855.40619 313.33211,808.0147300000001 273.09765999999996,776.5937900000001 C 237.30746999999997,748.6435900000001 192.43782999999996,733.7293500000001 147.03710999999996,734.6914500000001 L 147.03711,734.69141 M 222.72656,814.80664 C 227.37837000000002,817.6007 231.91761,820.5635100000001 236.16797,823.8828100000001 C 263.51247,845.23739 282.38017,878.56064 284.80273,911.9160200000001 C 287.12546,943.8966900000001 274.38702,978.0494900000001 251.82422,1001.7031000000002 C 229.14783,1025.4758000000002 195.65338,1040.1855000000003 162.19727,1041.6641000000002 C 129.2049,1043.1222000000002 95.04232900000001,1031.8209000000002 70.306641,1010.7715000000002 C 45.672995,989.8088900000001 29.369239,957.8779300000002 27.552734,926.1210900000002 C 25.658245,893.0008800000002 39.437663,857.9055300000002 63.183594,833.6679700000002 C 66.677302,830.1019300000002 70.474233,826.8207500000002 74.398437,823.6796900000002 C 60.915398,846.5123000000002 55.093568000000005,873.1186600000002 57.839844,899.4980500000001 C 60.37973,923.8949500000001 70.044089,946.5831300000001 84.517578,965.4316400000001 C 91.218737,974.1584200000001 99.463371,982.7838500000001 109.98242,989.8750000000001 C 120.59593000000001,997.0298300000001 133.26799,1002.4184000000001 147.64453,1003.8516000000001 C 164.58338,1005.5402 180.52663,1001.4217000000001 194.09375,994.05078 C 207.50917,986.76223 218.0525,976.63967 226.23437,965.72266 C 239.77608,947.65407 247.68538,926.26016 249.71484,904.20117 C 252.5157,873.7576200000001 244.00552000000002,843.2514100000001 225.84961,818.6543 C 224.86472,817.32 223.76057,816.0964 222.72656,814.80664 M 147.94727,832.12695 C 159.59838,836.56093 170.30309,844.43179 177.57617,854.28516 C 186.72861,866.68462 191.38066999999998,883.3584000000001 189.96875,898.7050800000001 C 188.93525,909.9385500000001 184.72961,921.0535000000001 178.2207,929.73828 C 174.29775,934.97265 169.77127,938.98103 165.45117,941.32812 C 161.28277,943.5928 156.74131,944.46202 153.5957,944.14844 C 150.87724,943.8774400000001 147.15314999999998,942.5731900000001 143.52148,940.125 C 139.79536,937.61313 135.86745,933.78977 132.10547,928.89062 C 124.04378,918.39206 118.80906,905.69051 117.51758,893.28516 C 116.12818,879.93928 119.28626,865.5664400000001 126.14062999999999,854.03125 C 131.36831999999998,845.23357 139.08955999999998,837.57428 147.94727,832.12695" id="path8197" /></svg:g></svg:svg>

<svg:svg xmlns:cc="http://creativecommons.org/ns#" xmlns:dc="http://purl.org/dc/elements/1.1/" xmlns:inkscape="http://www.inkscape.org/namespaces/inkscape" xmlns:rdf="http://www.w3.org/1999/02/22-rdf-syntax-ns#" xmlns:sodipodi="http://sodipodi.sourceforge.net/DTD/sodipodi-0.dtd" xmlns:svg="http://www.w3.org/2000/svg" xml:space="preserve" width="1000" height="1000" version="1.1" style="clip-rule:evenodd;fill-rule:evenodd;image-rendering:optimizeQuality;shape-rendering:geometricPrecision;text-rendering:geometricPrecision" viewBox="0 0 1000 1000" id="svg10" sodipodi:docname="u_drop_sign.svg" inkscape:version="1.1.1 (3bf5ae0d25, 2021-09-20)"><svg:text text-anchor="middle" x="144.78699" y="804.77313" id="bottom" inkscape:label="bottom" style="clip-rule:evenodd;fill-rule:evenodd;image-rendering:optimizeQuality;shape-rendering:geometricPrecision;text-rendering:geometricPrecision">✛</svg:text><svg:metadata id="metadata14"><rdf:RDF><cc:Work rdf:about=""><dc:format>image/svg+xml</dc:format><dc:type rdf:resource="http://purl.org/dc/dcmitype/StillImage" /></cc:Work></rdf:RDF></svg:metadata><sodipodi:namedview pagecolor="#ffffff" bordercolor="#666666" borderopacity="1" objecttolerance="10" gridtolerance="10" guidetolerance="10" inkscape:pageopacity="0" inkscape:pageshadow="2" inkscape:window-width="1920" inkscape:window-height="1009" id="namedview12" showgrid="false" inkscape:zoom="2.4010768" inkscape:cx="106.41059" inkscape:cy="876.68999" inkscape:window-x="0" inkscape:window-y="0" inkscape:window-maximized="1" inkscape:current-layer="svg10" showguides="true" inkscape:guide-bbox="true" inkscape:document-rotation="0" inkscape:pagecheckerboard="0"><sodipodi:guide position="0,1000" orientation="0,1" id="guide16" inkscape:label="" inkscape:locked="true" inkscape:color="rgb(0,0,255)" /><sodipodi:guide position="1763.3122,2036.1693" orientation="1000,0" id="guide18" /><sodipodi:guide position="0,200" orientation="0,1" id="guide20" inkscape:label="base" inkscape:locked="true" inkscape:color="rgb(0,0,255)" /><inkscape:grid type="xygrid" id="grid24" originx="-473.37552" originy="-489.69235" /><sodipodi:guide position="0,0" orientation="0,1" id="guide34" inkscape:label="bottom" inkscape:locked="true" inkscape:color="rgb(0,0,255)" /><sodipodi:guide position="225.05109,1693.3186" orientation="0,1" id="guide44" inkscape:label="" inkscape:locked="false" inkscape:color="rgb(0,0,255)" /><sodipodi:guide position="0,900" orientation="0,1" id="guide46" inkscape:label="" inkscape:locked="true" inkscape:color="rgb(0,0,255)" /><sodipodi:guide position="222.53938,284.82433" orientation="1,0" id="guide841" inkscape:label="width" />    </sodipodi:namedview>
 <svg:defs id="defs4"><inkscape:path-effect effect="spiro" id="path-effect852" is_visible="true" lpeversion="1" /><inkscape:path-effect effect="spiro" id="path-effect897" is_visible="true" lpeversion="1" /><inkscape:path-effect effect="spiro" id="path-effect887" is_visible="true" lpeversion="1" />
  <svg:style type="text/css" id="style2">
   
    .fil0 {fill:#EF7F1A;fill-rule:nonzero}
   
  </svg:style>
 <inkscape:path-effect effect="spiro" id="path-effect1214" is_visible="true" lpeversion="1" /><inkscape:path-effect effect="spiro" id="path-effect1195" is_visible="true" lpeversion="1" /><inkscape:path-effect effect="spiro" id="path-effect992" is_visible="true" lpeversion="1" /><inkscape:path-effect effect="spiro" id="path-effect1011" is_visible="true" lpeversion="1" /><inkscape:path-effect effect="spiro" id="path-effect261" is_visible="true" lpeversion="1" /><inkscape:path-effect effect="spiro" id="path-effect858" is_visible="true" lpeversion="1" /><inkscape:path-effect effect="spiro" id="path-effect854" is_visible="true" lpeversion="1" /><svg:style type="text/css" id="style2-9">
   
    .fil0 {fill:#EF7F1A;fill-rule:nonzero}
   
  </svg:style><inkscape:path-effect effect="spiro" id="path-effect287" is_visible="true" lpeversion="1" /><inkscape:path-effect effect="spiro" id="path-effect1032" is_visible="true" lpeversion="1" /><inkscape:path-effect effect="spiro" id="path-effect1218" is_visible="true" lpeversion="1" /><inkscape:path-effect effect="spiro" id="path-effect309" is_visible="true" lpeversion="1" /></svg:defs>
 
<svg:g id="path850"><svg:path style="color:#000000;clip-rule:nonzero;fill:#1a5fb4;fill-rule:nonzero;stroke-linecap:round;stroke-linejoin:round;-inkscape-stroke:none;shape-rendering:auto" d="m 147.03711,734.69141 a 30.003,30.003 0 0 0 -1.01953,0.0391 c -47.313346,2.61248 -92.531856,23.09919 -125.693361,56.94726 -35.491227,36.22604 -55.611251,86.48184 -52.671875,137.86914 2.817757,49.26114 26.6012065,95.28873 63.769531,126.91793 37.066282,31.5425 85.344915,47.2655 133.423825,45.1407 48.80448,-2.157 96.2372,-22.6815 130.39453,-58.4903 34.27093,-35.9278 53.0462,-85.40099 49.4043,-135.54489 -3.78863,-52.16416 -31.31242,-99.55562 -71.54687,-130.97656 -35.79019,-27.9502 -80.65983,-42.86444 -126.06055,-41.90234 z m 75.68945,80.11523 c 4.65181,2.79406 9.19105,5.75687 13.44141,9.07617 27.3445,21.35458 46.2122,54.67783 48.63476,88.03321 2.32273,31.98067 -10.41571,66.13347 -32.97851,89.78708 -22.67639,23.7727 -56.17084,38.4824 -89.62695,39.961 -32.99237,1.4581 -67.154941,-9.8432 -91.890629,-30.8926 -24.633646,-20.96261 -40.937402,-52.89357 -42.753907,-84.65041 -1.894489,-33.12021 11.884929,-68.21556 35.63086,-92.45312 3.493708,-3.56604 7.290639,-6.84722 11.214843,-9.98828 -13.483039,22.83261 -19.304869,49.43897 -16.558593,75.81836 2.539886,24.3969 12.204245,47.08508 26.677734,65.93359 6.701159,8.72678 14.945793,17.35221 25.464842,24.44336 10.61351,7.15483 23.28557,12.5434 37.66211,13.9766 16.93885,1.6886 32.8821,-2.4299 46.44922,-9.80082 13.41542,-7.28855 23.95875,-17.41111 32.14062,-28.32812 13.54171,-18.06859 21.45101,-39.4625 23.48047,-61.52149 2.80086,-30.44355 -5.70932,-60.94976 -23.86523,-85.54687 -0.98489,-1.3343 -2.08904,-2.5579 -3.12305,-3.84766 z m -74.77929,17.32031 c 11.65111,4.43398 22.35582,12.30484 29.6289,22.15821 9.15244,12.39946 13.8045,29.07324 12.39258,44.41992 -1.0335,11.23347 -5.23914,22.34842 -11.74805,31.0332 -3.92295,5.23437 -8.44943,9.24275 -12.76953,11.58984 -4.1684,2.26468 -8.70986,3.1339 -11.85547,2.82032 -2.71846,-0.271 -6.44255,-1.57525 -10.07422,-4.02344 -3.72612,-2.51187 -7.65403,-6.33523 -11.41601,-11.23438 -8.06169,-10.49856 -13.29641,-23.20011 -14.58789,-35.60546 -1.3894,-13.34588 1.76868,-27.71872 8.62305,-39.25391 5.22769,-8.79768 12.94893,-16.45697 21.80664,-21.9043 z" id="path8185" /></svg:g></svg:svg>
